!!!OTL: Totenlied O Mensch, betracht die Welt!
!!!ARE: Europa, Mitteleuropa, Lothringen, Rechicourt ( Kr. Saarburg )
!!!SCT: D0040
!!!YEM: Copyright 1995, estate of Helmut Schaffrath.
**kern
*ICvox
*Ivox
*M6/4
*k[f#]
*G:
{4d
=1
2g
4g
2a
4a
=2
2.b
4r
4r}
{4a
=3
2a
4b
2cc
4dd
=4
2b
4a
2a}
{4b
=5
2cc
4b
4b
4a
4g
=6
2.a
4r
4r}
{4b
=7
2b
4a
2a
4g
=8
4g
4a
4b
2a}
{4b
=9
2b
4a
2a
4g
=10
4g
4a
4b
2a}
{4b
=11
2dd
4a
2b
4b
=12
2.g
4r
4r}
==
!!!AGN: geistliches Lied, Tod, Totentanz
!! Verzierungen
!!!ONB: ESAC (Essen Associative Code) Database: DVA
!!!AMT: compound duple
!!!AIN: vox
!!!EED: Helmut Schaffrath
!!!EEV: 1.0
*-
